!!!COM:	la Rue, Pierre de
!!!CDT:	~1452///-1518/11/20
!!!OPR:	Missa O salutaris hostia
!!!ONM:	3
!!!OTL:	Credo
!!!AGN:	Mass; Credo
!!!SCT:	Rue1022c
!!!SCA:	Rue1022c
!!!voices-OPR:	4
!!!voices:	4
**kern	**kern	**kern	**kern
*Ivox	*Ivox	*Ivox	*Ivox
*I"Bassus	*I"Tenor	*I"Contra	*I"Discantus
*I'B	*I'T	*I'C	*I'D
*staff4	*staff3	*staff2	*staff1
*>[A,B,C]	*>[A,B,C]	*>[A,B,C]	*>[A,B,C]
*>A	*>A	*>A	*>A
*clefF4	*clefGv2	*clefGv2	*clefG2
*k[b-]	*k[b-]	*k[b-]	*k[b-]
*M2/1	*M2/1	*M2/1	*M2/1
*met(C)	*met(C)	*met(C)	*met(C)
=1-	=1-	=1-	=1-
!!section: Patrem omnipotentem
!!!OMD: Patrem omnipotentem
!	!	!	!LO:TX:X=-40:Z=8:t=4-ex-1 canon at the lower 5th/8ve/12th (2/6/8 breves)
0r	0r	0r	0g
=2	=2	=2	=2
0r	0r	0r	0g
=3	=3	=3	=3
0r	0r	0c	1c
.	.	.	1c
=4	=4	=4	=4
0r	0r	0c	2e/
.	.	.	2f/
.	.	.	1g
=5	=5	=5	=5
0r	0r	1F	0a
.	.	1F	.
=6	=6	=6	=6
0r	0r	2A/	1r
.	.	2B-\	.
.	.	1c	1a
=7	=7	=7	=7
0r	0G	0d	2.b-\
.	.	.	4a/
.	.	.	4g/
.	.	.	4a/
.	.	.	4b-\
.	.	.	4cc\
=8	=8	=8	=8
0r	0G	1r	2dd\
.	.	.	1cc
.	.	1d	.
.	.	.	2bni\
=9	=9	=9	=9
0C	1C	2.e\	1cc
.	.	4d\	.
.	1C	4c\	2cc\
.	.	4d\	.
.	.	4e\	[2cc\
.	.	4f\	.
=10	=10	=10	=10
0C	2E/	2g\	4cc\]
.	.	.	4b-\
.	2F/	1f	2a/
.	1G	.	1g
.	.	2e\	.
=11	=11	=11	=11
1FF	[0Al	1f	2r
.	.	.	2.cc\
1FF	.	2f\	.
.	.	.	4b-\
.	.	[2f\	[2a/
=12	=12	=12	=12
2AA/	0A_	4f\]	2a/]
.	.	4e\	.
2BB-/	.	2d\	4g/
.	.	.	4f/
1C	.	1c	1e
=13	=13	=13	=13
[0Dl	0A_	2r	[0a
.	.	2.f\	.
.	.	4e\	.
.	.	[2d\	.
=14	=14	=14	=14
0D_	0A_	2d\]	1a]
.	.	4c\	.
.	.	4B-\	.
.	.	1A	1f
=15	=15	=15	=15
0D]	0A]	0dl	0fl
!!LO:LB:i:g=z
=16||	=16||	=16||	=16||
*>B	*>B	*>B	*>B
*clefF4	*clefGv2	*clefGv2	*clefG2
*k[b-]	*k[b-]	*k[b-]	*k[b-]
*M2/1	*M2/1	*M2/1	*M2/1
*met(C2)	*met(C2)	*met(C2)	*met(C2)
!!section: Visibilium omnium
!!!OMD: Visibilium omnium
!	!	!	!LO:TX:X=-40:Z=8:t=4-ex-1 canon at the lower 5th/8ve/12th (2/13/15 breves)
0r	0r	0r	0a
=17.	=17.	=17.	=17.
0r	0r	0r	1a
.	.	.	1a
=18	=18	=18	=18
0r	0r	0d	1b-
.	.	.	1a
=19.	=19.	=19.	=19.
0r	0r	1d	2b-\
.	.	.	4a/
.	.	.	4g/
.	.	1d	1a
=20	=20	=20	=20
0r	0r	1e	2g/
.	.	.	1cc
.	.	1d	.
.	.	.	2b-\
=21.	=21.	=21.	=21.
0r	0r	2e\	2.cc\
.	.	4d\	.
.	.	4c\	4a/
.	.	1d	2b-\
.	.	.	[2a/
=22	=22	=22	=22
0r	0r	2c\	2a/]
.	.	1f	4g/
.	.	.	4f/
.	.	.	2.g/
.	.	2e\	.
.	.	.	4f/
=23.	=23.	=23.	=23.
0r	0r	2.f\	1d
.	.	4d\	.
.	.	2e\	2r
.	.	[2d\	2a/
=24	=24	=24	=24
0r	0r	2d\]	1a
.	.	4c\	.
.	.	4B-\	.
.	.	2.c\	1a
.	.	4B-\	.
=25.	=25.	=25.	=25.
0r	0r	1G	1b-
.	.	2r	2b-\
.	.	2d\	[2b-\
=26	=26	=26	=26
0r	0r	1d	2b-\]
.	.	.	4a/
.	.	.	4g/
.	.	1d	2.f/
.	.	.	4g/
=27.	=27.	=27.	=27.
0r	0r	1e-i	1g
.	.	2e-i\	2cc\
.	.	[2e-i\	[2cc\
=28	=28	=28	=28
0r	0r	2e-\]	2cc\]
.	.	4d\	4b-\
.	.	4c\	4a/
.	.	2.B-\	1g
.	.	4c\	.
=29.	=29.	=29.	=29.
0r	0A	1c	0a
.	.	2f\	.
.	.	[2f\	.
=30	=30	=30	=30
0r	1A	2f\]	0r
.	.	4e\	.
.	.	4d\	.
.	1A	1c	.
=31.	=31.	=31.	=31.
0D	1B-	[0d	0r
.	1A	.	.
=32	=32	=32	=32
1D	2B-\	0d]	0r
.	4A/	.	.
.	4G/	.	.
1D	1A	.	.
=33.	=33.	=33.	=33.
1E	2G/	0r	0r
.	1c	.	.
1D	.	.	.
.	2B-\	.	.
=34	=34	=34	=34
2E\	2.c\	0r	0r
4D\	.	.	.
4C/	4A/	.	.
1D	2B-\	.	.
.	[2A/	.	.
=35.	=35.	=35.	=35.
2C/	2A/]	0r	0r
1F	4G/	.	.
.	4F/	.	.
.	2.G/	.	.
2E\	.	.	.
.	4F/	.	.
=36	=36	=36	=36
2.F\	1D	0r	0r
4D\	.	.	.
2E\	2r	.	.
[2D\	2A/	.	.
=37.	=37.	=37.	=37.
2D\]	1A	0r	0r
4C/	.	.	.
4BB-/	.	.	.
2.C/	1A	.	.
4BB-/	.	.	.
=38	=38	=38	=38
1GG	1B-	0r	0r
2r	2B-\	.	.
2D\	[2B-\	.	.
=39.	=39.	=39.	=39.
1D	2B-\]	0r	0r
.	4A/	.	.
.	4G/	.	.
1D	2.F/	.	.
.	4G/	.	.
=40	=40	=40	=40
1E-i	1G	0r	0g
2E-i\	2c\	.	.
[2E-i\	[2c\	.	.
=41.	=41.	=41.	=41.
2E-\]	2c\]	0r	1g
4D\	4B-\	.	.
4C/	4A/	.	.
2.BB-/	1G	.	1g
4C/	.	.	.
=42	=42	=42	=42
1C	[0A	0c	1e
2F\	.	.	2c/
[2F\	.	.	2cc\
=43.	=43.	=43.	=43.
2F\]	0A]	1c	2cc\
4E\	.	.	2.cc\
4D\	.	.	.
1C	.	1c	.
.	.	.	4b-\
.	.	.	4a/
.	.	.	4g/
=44	=44	=44	=44
[0D	0r	1A	1f
.	.	2F/	1a
.	.	2f\	.
=45.	=45.	=45.	=45.
0D]	0r	2f\	2a/
.	.	2.f\	2.a/
.	.	4e\	4g/
.	.	4d\	4f/
.	.	4c\	4e/
=46	=46	=46	=46
0r	0r	1B-	1d
.	.	1d	2r
.	.	.	2d/
=47.	=47.	=47.	=47.
0r	0r	2d\	1f
.	.	2.d\	.
.	.	.	1f
.	.	4c\	.
.	.	4B-\	.
.	.	4A/	.
=48	=48	=48	=48
0r	0r	1G	2.g/
.	.	.	4f/
.	.	2r	1e
.	.	2G/	.
=49.	=49.	=49.	=49.
0r	0r	1B-	0d
.	.	1B-	.
=50	=50	=50	=50
0r	0r	2.c\	1a
.	.	4B-\	.
.	.	1A	2a/
.	.	.	2a/
=51.	=51.	=51.	=51.
0r	0r	0G	2b-\
.	.	.	2.dd\
.	.	.	4cc\
.	.	.	[2b-\
=52	=52	=52	=52
0r	0r	1d	2b-\]
.	.	.	4a/
.	.	.	4g/
.	.	2d\	2.f#i/
.	.	2d\	.
.	.	.	4e/
=53.	=53.	=53.	=53.
0r	0G	2e\	0g
.	.	2.g\	.
.	.	4f\	.
.	.	[2e\	.
=54	=54	=54	=54
0r	1G	2e\]	1r
.	.	4d\	.
.	.	4c\	.
.	1G	2.Bni\	[1g
.	.	4A/	.
=55.	=55.	=55.	=55.
0C	1E	0c	1g]
.	2C/	.	1g
.	2c\	.	.
=56	=56	=56	=56
1C	2c\	1r	1g
.	2.c\	.	.
1C	.	[1c	1g
.	4B-\	.	.
.	4A/	.	.
.	4G/	.	.
=57.	=57.	=57.	=57.
1AA	1F	1c]	0a
2FF/	1A	1c	.
2F\	.	.	.
=58	=58	=58	=58
2F\	2A/	1c	1a
2.F\	2.A/	.	.
.	.	1c	2a/
4E\	4G/	.	.
4D\	4F/	.	2a/
4C/	4E/	.	.
=59.	=59.	=59.	=59.
1BB-	1D	0d	2.b-\
.	.	.	4a/
1D	2r	.	1f
.	2D/	.	.
=60	=60	=60	=60
2D\	1F	1d	2f/
2.D\	.	.	2f/
.	1F	2d\	1f
4C/	.	.	.
4BB-/	.	2d\	.
4AA/	.	.	.
=61.	=61.	=61.	=61.
1GG	2.G/	2.e-i\	0r
.	4F/	4d\	.
2r	1E-i	1B-	.
2GG/	.	.	.
=62	=62	=62	=62
1BB-	0D	2B-\	0r
.	.	2B-\	.
1BB-	.	1B-	.
=63.	=63.	=63.	=63.
2.C/	1A	0r	0r
4BB-/	.	.	.
1AA	2A/	.	.
.	2A/	.	.
=64	=64	=64	=64
0GG	2B-\	0r	0r
.	2.d\	.	.
.	4c\	.	.
.	[2B-\	.	.
=65.	=65.	=65.	=65.
1D	2B-\]	0r	0r
.	4A/	.	.
.	4G/	.	.
2D\	2.F/	.	.
2D\	.	.	.
.	4E/	.	.
=66	=66	=66	=66
2E\	0G	0r	2.g/
2.G\	.	.	.
.	.	.	4g/
.	.	.	2g/
4F\	.	.	.
[2E\	.	.	2g/
=67.	=67.	=67.	=67.
2E\]	1r	0r	2g/
4D\	.	.	4f/
4C/	.	.	4e/
2.BBni/	[1G	.	1d
4AA/	.	.	.
=68	=68	=68	=68
0C	1G]	2.c\	1g
.	.	4c\	.
.	1G	2c\	2g/
.	.	2c\	2g/
=69.	=69.	=69.	=69.
1r	1G	2c\	1g
.	.	4B-\	.
.	.	4A/	.
[1C	1G	1G	4g/
.	.	.	4f/
.	.	.	4e/
.	.	.	4d/
=70	=70	=70	=70
1C]	0A	1c	1c
1C	.	2c\	1cc
.	.	2c\	.
=71.	=71.	=71.	=71.
1C	1A	1c	0cc
1C	2A/	4c\	.
.	.	4B-\	.
.	2A/	4A/	.
.	.	4G/	.
=72	=72	=72	=72
0D	2.B-\	1F	1r
.	4A/	.	.
.	1F	1f	1a
=73.	=73.	=73.	=73.
1D	2F/	0f	2a/
.	2F/	.	2a/
2D\	1F	.	2a/
2D\	.	.	2a/
=74	=74	=74	=74
2.E-i\	0r	1r	2g/
.	.	.	1b-
4D\	.	.	.
1BB-	.	1d	.
.	.	.	4a/
.	.	.	4g/
=75.	=75.	=75.	=75.
2BB-/	0r	2d\	0f
2BB-/	.	2d\	.
1BB-	.	2d\	.
.	.	2d\	.
=76	=76	=76	=76
0r	0r	2c\	1cc
.	.	1e-i	.
.	.	.	2cc\
.	.	4d\	2cc\
.	.	4c\	.
=77.	=77.	=77.	=77.
0r	0r	0B-	2dd\
.	.	.	1dd
.	.	.	4cc\
.	.	.	4b-\
=78	=78	=78	=78
0r	0r	1f	2.a/
.	.	.	4g/
.	.	2f\	1a
.	.	2f\	.
=79.	=79.	=79.	=79.
0r	2.G/	2g\	0g
.	.	1g	.
.	4G/	.	.
.	2G/	.	.
.	2G/	4f\	.
.	.	4e\	.
=80	=80	=80	=80
0r	2G/	2.d\	0r
.	4F/	.	.
.	4E/	4c\	.
.	1D	1d	.
=81.	=81.	=81.	=81.
2.C/	1G	0c	1.g
4C/	.	.	.
2C/	2G/	.	.
2C/	2G/	.	2g/
=82	=82	=82	=82
2C/	1G	0r	2g/
4BB-/	.	.	1g
4AA/	.	.	.
1GG	4G/	.	.
.	4F/	.	.
.	4E/	.	2g/
.	4D/	.	.
=83.	=83.	=83.	=83.
1C	1C	1.c	2.e/
.	.	.	4d/
2C/	1c	.	1c
2C/	.	2c\	.
=84	=84	=84	=84
1C	0c	2c\	2.e/
.	.	1c	.
.	.	.	4f/
4C/	.	.	2g/
4BB-/	.	.	.
4AA/	.	2c\	2g/
4GG/	.	.	.
=85.	=85.	=85.	=85.
1FF	1r	2.A/	1a
.	.	4G/	.
1F	1A	1F	[1a
=86	=86	=86	=86
0F	2A/	2.A/	2a/]
.	2A/	.	2a/
.	.	4B-\	.
.	2A/	2c\	1a
.	2A/	2c\	.
=87.	=87.	=87.	=87.
1r	2G/	1d	2d/
.	1B-	.	2d/
1D	.	[1d	2d/
.	4A/	.	2d/
.	4G/	.	.
=88	=88	=88	=88
2D\	0F	2d\]	1.f
2D\	.	2d\	.
2D\	.	1d	.
2D\	.	.	2f/
=89.	=89.	=89.	=89.
2C/	1c	2G/	0g
1E-i	.	2G/	.
.	2c\	2G/	.
4D\	2c\	2G/	.
4C/	.	.	.
=90	=90	=90	=90
0BB-	2d\	1.B-	2r
.	1d	.	2f/
.	.	.	2.f/
.	4c\	2B-\	.
.	4B-\	.	4g/
=91.	=91.	=91.	=91.
1F	2.A/	0c	2a/
.	.	.	2b-\
.	4G/	.	.
2F\	1A	.	2cc\
2F\	.	.	2a/
=92	=92	=92	=92
2G\	0G	2r	1b-
1G	.	2B-\	.
.	.	2.B-\	1g
4F\	.	.	.
4E\	.	4c\	.
=93.	=93.	=93.	=93.
2.D\	0r	2d\	0r
.	.	2e\	.
4C/	.	.	.
1D	.	2f\	.
.	.	2d\	.
=94	=94	=94	=94
0C	1.G	1e	1g
.	.	1c	2g/
.	2G/	.	2g/
=95.	=95.	=95.	=95.
0r	2G/	0r	2g/
.	1G	.	4f/
.	.	.	4e/
.	.	.	2d/
.	2G/	.	2d/
=96	=96	=96	=96
1.C	2.E/	1c	1c
.	4D/	.	.
.	1C	2c\	2e/
2C/	.	2c\	2f/
=97.	=97.	=97.	=97.
2C/	2.E/	2c\	1g
1C	.	4B-\	.
.	4F/	4A/	.
.	2G/	2G/	1g
2C/	2G/	2G/	.
=98	=98	=98	=98
2.AA/	1A	1F	1c
4GG/	.	.	.
1FF	[1A	2A/	1cc
.	.	2B-\	.
=99.	=99.	=99.	=99.
2.AA/	2A/]	1c	1.cc
.	2A/	.	.
4BB-/	.	.	.
2C/	1A	1c	.
2C/	.	.	4b-\
.	.	.	4a/
=100	=100	=100	=100
1D	2D/	1F	1a
.	2D/	.	.
[1D	2D/	1f	1r
.	2D/	.	.
=101.	=101.	=101.	=101.
2D\]	1.F	1.f	1a
2D\	.	.	.
1D	.	.	2a/
.	2F/	4e\	2a/
.	.	4d\	.
=102	=102	=102	=102
2GG/	0G	1d	2.b-\
2GG/	.	.	.
.	.	.	4a/
2GG/	.	1r	2g/
2GG/	.	.	2g/
=103.	=103.	=103.	=103.
1.BB-	2r	1d	2f/
.	2F/	.	2d/
.	2.F/	2d\	2.f/
2BB-/	.	2d\	.
.	4G/	.	8e/L
.	.	.	8d/J
=104	=104	=104	=104
0C	2A/	2.e\	2c/
.	2B-\	.	2g/
.	.	4d\	.
.	2c\	2c\	2a/
.	2A/	2c\	2a/
=105.	=105.	=105.	=105.
2r	1B-	2B-\	2d/
2BB-/	.	2G/	1dd
2.BB-/	1G	2.B-\	.
.	.	.	4cc\
4C/	.	8A/L	4b-\
.	.	8G/J	.
=106	=106	=106	=106
2D\	0r	2F/	2a/
2E\	.	2c\	2a/
2F\	.	2d\	1a
2D\	.	2d\	.
=107.	=107.	=107.	=107.
1E	1G	2G/	1r
.	.	1g	.
1C	2G/	.	1g
.	2G/	4f\	.
.	.	4e\	.
=108	=108	=108	=108
0r	2G/	2d\	1g
.	4F/	2d\	.
.	4E/	.	.
.	2D/	1d	1f
.	2D/	.	.
=109.	=109.	=109.	=109.
1C	1C	1r	2.e/
.	.	.	4d/
2C/	2E/	1c	1c
2C/	2F/	.	.
=110	=110	=110	=110
2C/	1G	1c	1.g
4BB-/	.	.	.
4AA/	.	.	.
2GG/	1G	1B-	.
2GG/	.	.	2g/
=111.	=111.	=111.	=111.
1FF	1C	2.A/	2a/
.	.	.	1cc
.	.	4G/	.
2AA/	1c	1F	.
2BB-/	.	.	4b-\
.	.	.	4a/
=112	=112	=112	=112
1C	1.c	1.c	2g/
.	.	.	2g/
1C	.	.	1g
.	4B-\	2c\	.
.	4A/	.	.
=113.	=113.	=113.	=113.
1FF	1A	2d\	1r
.	.	1f	.
1F	1r	.	1a
.	.	4e\	.
.	.	4d\	.
=114	=114	=114	=114
1.F	1A	2c\	2a/
.	.	2c\	2a/
.	2A/	1c	2a/
4E\	2A/	.	2a/
4D\	.	.	.
=115.	=115.	=115.	=115.
1D	2.B-\	1r	2.dd\
.	4A/	.	4cc\
1r	2G/	1d	2b-\
.	2G/	.	4a/
.	.	.	4g/
=116	=116	=116	=116
1D	2F/	2d\	0a
.	2D/	2d\	.
2D\	2.F/	2d\	.
2D\	.	2d\	.
.	8E/L	.	.
.	8D/J	.	.
=117.	=117.	=117.	=117.
2.E-i\	2C/	2.g\	1r
.	2G/	.	.
4D\	.	4f\	.
2C/	2A/	2e\	2a/
2C/	2A/	4d\	2a/
.	.	4c\	.
=118	=118	=118	=118
2BB-/	2D/	0d	2.b-\
2GG/	1d	.	.
.	.	.	4a/
2.BB-/	.	.	2f/
.	4c\	.	2g/
8AA/L	4B-\	.	.
8GG/J	.	.	.
=119.	=119.	=119.	=119.
2FF/	2A/	1r	4a/
.	.	.	4g/
2C/	2A/	.	4f#i/
.	.	.	4e/
2D\	1A	2d\	2f#i/
2D\	.	2d\	4g/
.	.	.	4f#i/
=120	=120	=120	=120
[0GGl	1r	2.e-i\	[0gl
.	.	4d\	.
.	1G	2B-\	.
.	.	2c\	.
=121.	=121.	=121.	=121.
0GG]	0Gl	0dl	0g]
!!LO:LB:i:g=z
=122||	=122||	=122||	=122||
*>C	*>C	*>C	*>C
*clefF4	*clefGv2	*clefGv2	*clefG2
*k[b-]	*k[b-]	*k[b-]	*k[b-]
*M2/1	*M2/1	*M2/1	*M2/1
*met(C2)	*met(C2)	*met(C2)	*met(C2)
!!section: Et resurrexit
!!!OMD: Et resurrexit
!	!LO:TX:X=-40:Z=8:t=4-ex-1 canon at the lower 5th/upper 8ve/upper 4th (2/13/15 breves)	!	!
0r	1.G	0r	0r
.	2G/	.	.
=123.	=123.	=123.	=123.
0r	1G	0r	0r
.	1F	.	.
=124	=124	=124	=124
1.C	1E	0r	0r
.	2.E/	.	.
2C/	.	.	.
.	4F/	.	.
=125.	=125.	=125.	=125.
1C	2G/	0r	0r
.	2.A/	.	.
1BB-	.	.	.
.	4G/	.	.
.	2G/	.	.
=126	=126	=126	=126
1AA	0A	0r	0r
2.AA/	.	.	.
4BB-/	.	.	.
=127.	=127.	=127.	=127.
2C/	1r	0r	0r
2.D\	.	.	.
.	1A	.	.
4C#i/	.	.	.
2C#i/	.	.	.
=128	=128	=128	=128
0D	1A	0r	0r
.	1B-	.	.
=129.	=129.	=129.	=129.
1r	2A/	0r	0r
.	1B-	.	.
1D	.	.	.
.	4A/	.	.
.	4G/	.	.
=130	=130	=130	=130
1D	1F	0r	0r
1E-i	2.G/	.	.
.	4E-i/	.	.
=131.	=131.	=131.	=131.
2D\	2F/	0r	0r
1E-i	2G/	.	.
.	1E-i	.	.
4D\	.	.	.
4C/	.	.	.
=132	=132	=132	=132
1BB-	1D	0r	0r
2.C/	2E-i/	.	.
.	[2D/	.	.
4AA/	.	.	.
=133.	=133.	=133.	=133.
2BB-/	2D/]	0r	0r
2C/	2.G/	.	.
1AA	.	.	.
.	4F#i/	.	.
.	2F#i/	.	.
=134	=134	=134	=134
1GG	1G	0r	0r
2AA/	1r	.	.
[2GG/	.	.	.
=135.	=135.	=135.	=135.
2GG/]	1G	0r	1.g
2.C/	.	.	.
.	2G/	.	.
4BBni/	.	.	.
2BBni/	2G/	.	2g/
=136	=136	=136	=136
1C	2G/	0r	1g
.	2c\	.	.
1r	2A/	.	1f
.	2B-\	.	.
=137.	=137.	=137.	=137.
1C	0c	1.c	1e
2C/	.	.	2.e/
2C/	.	2c\	.
.	.	.	4f/
=138	=138	=138	=138
2C/	0r	1c	2g/
2F\	.	.	2.a/
2D\	.	1B-	.
.	.	.	4g/
2E\	.	.	2g/
=139.	=139.	=139.	=139.
0F	0r	1A	0a
.	.	2.A/	.
.	.	4B-\	.
=140	=140	=140	=140
0r	0r	2c\	1r
.	.	2.d\	.
.	.	.	1a
.	.	4c#i\	.
.	.	2c#i\	.
=141.	=141.	=141.	=141.
0r	0r	0d	1a
.	.	.	1b-
=142	=142	=142	=142
0r	0r	1r	2a/
.	.	.	1b-
.	.	1d	.
.	.	.	4a/
.	.	.	4g/
=143.	=143.	=143.	=143.
0r	0r	1d	1f
.	.	1e-i	2.g/
.	.	.	4e-i/
=144	=144	=144	=144
0r	0r	2d\	2f/
.	.	1e-i	2g/
.	.	.	1e-i
.	.	4d\	.
.	.	4c\	.
=145.	=145.	=145.	=145.
0r	0r	1B-	1d
.	.	2.c\	2e-i/
.	.	.	[2d/
.	.	4A/	.
=146	=146	=146	=146
0r	0r	2B-\	2d/]
.	.	2c\	2.g/
.	.	1A	.
.	.	.	4f#i/
.	.	.	2f#i/
=147.	=147.	=147.	=147.
0r	0r	1G	1g
.	.	2A/	1r
.	.	[2G/	.
=148	=148	=148	=148
0r	0r	2G/]	1g
.	.	2.c\	.
.	.	.	2g/
.	.	4Bni\	.
.	.	2Bni\	2g/
=149.	=149.	=149.	=149.
0r	2r	1c	2g/
.	2A/	.	2cc\
.	2A/	1r	2a/
.	2G/	.	2b-\
=150	=150	=150	=150
0r	2A/	1c	0cc
.	2.F/	.	.
.	.	2c\	.
.	4E/	.	.
.	2E/	2c\	.
=151.	=151.	=151.	=151.
2r	1F	2c\	0r
2D\	.	2f\	.
2D\	1G	2d\	.
2C/	.	2e\	.
=152	=152	=152	=152
2D\	2.F/	0f	0r
2.BB-/	.	.	.
.	4E/	.	.
.	2D/	.	.
4AA/	.	.	.
2AA/	2C/	.	.
=153.	=153.	=153.	=153.
1BB-	1D	0r	0r
1C	1E	.	.
=154	=154	=154	=154
2.BB-/	2D/	0r	0r
.	2F/	.	.
4AA/	.	.	.
4GG/	2G/	.	.
2.FF/	.	.	.
.	[2D/	.	.
=155.	=155.	=155.	=155.
1GG	2D/]	0r	0r
.	2G/	.	.
1AA	4F#i/	.	.
.	4E/	.	.
.	2F#i/	.	.
=156	=156	=156	=156
2GG/	0G	0r	0r
2BB-/	.	.	.
2C/	.	.	.
[2GG/	.	.	.
=157.	=157.	=157.	=157.
2GG/]	1r	0r	0r
2C/	.	.	.
4BBni/	2d\	.	.
4AA/	.	.	.
2BBni/	2d\	.	.
=158	=158	=158	=158
0C	4c\	0r	0r
.	4B-\	.	.
.	4A/	.	.
.	4G/	.	.
.	2A/	.	.
.	2A/	.	.
=159.	=159.	=159.	=159.
1r	2.G/	0r	0r
.	4A/	.	.
2G\	4B-\	.	.
.	4c\	.	.
2G\	[2d\	.	.
=160	=160	=160	=160
4F\	4d\]	0r	0r
4E\	4c\	.	.
4D\	1c	.	.
4C/	.	.	.
2D\	.	.	.
2D\	2Bni\	.	.
=161.	=161.	=161.	=161.
2.C/	2.c\	0r	0r
4D\	4B-\	.	.
4E\	2A/	.	.
4F\	.	.	.
[2G\	2G/	.	.
=162	=162	=162	=162
4G\]	1A	0r	2r
4F\	.	.	.
1F	.	.	2a/
.	1B-	.	2a/
2E\	.	.	2g/
=163.	=163.	=163.	=163.
2.F\	1A	0r	2a/
.	.	.	2.f/
4E\	.	.	.
2D\	1r	.	.
.	.	.	4e/
2C/	.	.	2e/
=164	=164	=164	=164
1D	0r	2r	1f
.	.	2d\	.
1E	.	2d\	1g
.	.	2c\	.
=165.	=165.	=165.	=165.
1D	0r	2d\	2.f/
.	.	2.B-\	.
.	.	.	4e/
1r	.	.	2d/
.	.	4A/	.
.	.	2A/	2c/
=166	=166	=166	=166
0r	0r	1B-	1d
.	.	1c	1e
=167.	=167.	=167.	=167.
0r	0r	2.B-\	2d/
.	.	.	2f/
.	.	4A/	.
.	.	2G/	2g/
.	.	2F/	[2d/
=168	=168	=168	=168
0r	0r	1G	2d/]
.	.	.	2g/
.	.	1A	4f#i/
.	.	.	4e/
.	.	.	2f#i/
=169.	=169.	=169.	=169.
0r	0r	2G/	0g
.	.	2B-\	.
.	.	2c\	.
.	.	[2G/	.
=170	=170	=170	=170
0r	0r	2G/]	1r
.	.	2c\	.
.	.	4Bni\	2dd\
.	.	4A/	.
.	.	2Bni\	2dd\
=171.	=171.	=171.	=171.
0r	0r	0c	4cc\
.	.	.	4b-\
.	.	.	4a/
.	.	.	4g/
.	.	.	2a/
.	.	.	2a/
=172	=172	=172	=172
0r	0r	1r	2.g/
.	.	.	4a/
.	.	2g\	4b-\
.	.	.	4cc\
.	.	2g\	[2dd\
=173.	=173.	=173.	=173.
0r	0r	4f\	4dd\]
.	.	4e\	4cc\
.	.	4d\	1cc
.	.	4c\	.
.	.	2d\	.
.	.	2d\	2bni\
=174	=174	=174	=174
0r	2r	2.c\	2.cc\
.	1c	.	.
.	.	4d\	4b-\
.	.	4e\	2a/
.	.	4f\	.
.	2B-\	[2g\	2g/
=175.	=175.	=175.	=175.
0r	2c\	4g\]	1a
.	.	4f\	.
.	2A/	1f	.
.	2G/	.	1b-
.	2G/	2e\	.
=176	=176	=176	=176
2r	1F	2.f\	1a
1F	.	.	.
.	.	4e\	.
.	1r	2d\	1r
2E\	.	2c\	.
=177.	=177.	=177.	=177.
2F\	1A	1d	0r
2D\	.	.	.
2C/	1A	1e	.
2C/	.	.	.
=178	=178	=178	=178
1BB-	2.B-\	1d	0r
.	4A/	.	.
1r	1G	1r	.
=179.	=179.	=179.	=179.
1D	1F	0r	0r
1D	2r	.	.
.	2F/	.	.
=180	=180	=180	=180
2.E-i\	1G	0r	0r
4D\	.	.	.
1C	1A	.	.
=181.	=181.	=181.	=181.
1BB-	2B-\	0r	0r
.	4A/	.	.
.	4G/	.	.
2r	2F/	.	.
2BB-/	2B-\	.	.
=182	=182	=182	=182
1C	2A/	0r	0r
.	2.G/	.	.
1D	.	.	.
.	4F/	.	.
.	2F/	.	.
=183.	=183.	=183.	=183.
2E-i\	2G/	0r	0r
4D\	2G/	.	.
4C/	.	.	.
2BB-/	2G/	.	.
2E-i\	2G/	.	.
=184	=184	=184	=184
2D\	2G/	0r	0r
2.C/	4F/	.	.
.	4E/	.	.
.	2D/	.	.
4BBni/	.	.	.
2BBni/	2D/	.	.
=185.	=185.	=185.	=185.
2C/	1C	0r	0r
2C/	.	.	.
2C/	1r	.	.
2C/	.	.	.
=186	=186	=186	=186
2C/	1G	0r	0r
4BB-/	.	.	.
4AA/	.	.	.
2GG/	2G/	.	.
2GG/	2G/	.	.
=187.	=187.	=187.	=187.
1FF	2A/	0r	2r
.	1A	.	1cc
1r	.	.	.
.	2G/	.	2b-\
=188	=188	=188	=188
1C	2A/	0r	2cc\
.	4G/	.	2a/
.	4F/	.	.
2C/	2E/	.	2g/
2C/	2E/	.	2g/
=189.	=189.	=189.	=189.
2D\	1D	2r	1f
1D	.	1f	.
.	1r	.	1r
2C/	.	2e\	.
=190	=190	=190	=190
2D\	0r	2f\	1a
4C/	.	2d\	.
4BB-/	.	.	.
2AA/	.	2c\	1a
2AA/	.	2c\	.
=191.	=191.	=191.	=191.
1GG	0r	1B-	2.b-\
.	.	.	4a/
1r	.	1r	1g
=192	=192	=192	=192
0r	0r	1d	1f
.	.	1d	2r
.	.	.	2f/
=193.	=193.	=193.	=193.
0r	0r	2.e-i\	1g
.	.	4d\	.
.	.	1c	1a
=194	=194	=194	=194
0r	0r	1B-	2b-\
.	.	.	4a/
.	.	.	4g/
.	.	2r	2f/
.	.	2B-\	2b-\
=195.	=195.	=195.	=195.
0r	0r	1c	2a/
.	.	.	2.g/
.	.	1d	.
.	.	.	4f/
.	.	.	2f/
=196	=196	=196	=196
0r	0r	2e-i\	2g/
.	.	4d\	2g/
.	.	4c\	.
.	.	2B-\	2g/
.	.	2e-\	2g/
=197.	=197.	=197.	=197.
0r	0r	2d\	2g/
.	.	2.c\	4f/
.	.	.	4e/
.	.	.	2d/
.	.	4Bni\	.
.	.	2Bni\	2d/
=198	=198	=198	=198
0r	0r	2c\	1c
.	.	2c\	.
.	.	2c\	1r
.	.	2c\	.
=199.	=199.	=199.	=199.
0r	0r	2c\	1g
.	.	4B-\	.
.	.	4A/	.
.	.	2G/	2g/
.	.	2G/	2g/
=200	=200	=200	=200
0r	2r	1F	2a/
.	2F/	.	1a
.	2F/	1r	.
.	2E/	.	2g/
=201.	=201.	=201.	=201.
0r	2F/	1c	2a/
.	2G/	.	4g/
.	.	.	4f/
.	1A	2c\	2e/
.	.	2c\	2e/
=202	=202	=202	=202
2r	2.B-\	2d\	1d
2BB-/	.	1d	.
.	4A/	.	.
2BB-/	4F/	.	1r
.	4G/	.	.
2AA/	[2A/	2c\	.
=203.	=203.	=203.	=203.
2BB-/	2A/]	2d\	0r
2C/	2.G/	4c\	.
.	.	4B-\	.
1D	.	2A/	.
.	4F#i/	.	.
.	2F#i/	2A/	.
=204	=204	=204	=204
2.E-i\	1G	1G	0r
4D\	.	.	.
4BB-/	1r	1r	.
4C/	.	.	.
[2D\	.	.	.
=205.	=205.	=205.	=205.
2D\]	1G	0r	0r
2.C/	.	.	.
.	2G/	.	.
4BBni/	.	.	.
2BBni/	2G/	.	.
=206	=206	=206	=206
1C	1G	0r	0r
1r	1A	.	.
=207.	=207.	=207.	=207.
1C	2G/	0r	0r
.	1E	.	.
2C/	.	.	.
2C/	[2G/	.	.
=208	=208	=208	=208
1C	2G/]	0r	0r
.	4F/	.	.
.	4E/	.	.
1D	1F	.	.
=209.	=209.	=209.	=209.
2C/	2E/	0r	0r
1AA	1c	.	.
[2C/	4B-\	.	.
.	4A/	.	.
=210	=210	=210	=210
2C/]	2G/	0r	0r
4BB-/	1A	.	.
4AA/	.	.	.
1BB-	.	.	.
.	2G/	.	.
=211.	=211.	=211.	=211.
2AA/	2A/	0r	0r
1F	1A	.	.
4E\	2G/	.	.
4D\	.	.	.
=212	=212	=212	=212
2C/	2A/	0r	0r
1D	2F/	.	.
.	2G/	.	.
2C/	2A/	.	.
=213.	=213.	=213.	=213.
2D\	1D	0r	2r
1D	.	.	2f/
.	2A/	.	2f/
2C/	[2A/	.	2e/
=214	=214	=214	=214
2D\	2A/]	0r	2f/
2BB-/	2B-\	.	2g/
2C/	1A	.	1a
2D\	.	.	.
=215.	=215.	=215.	=215.
1GG	2.G/	2r	2.b-\
.	.	2B-\	.
.	4F/	.	4a/
2D\	1D	2B-\	4f/
.	.	.	4g/
[2D\	.	2A/	[2a/
=216	=216	=216	=216
2D\]	0r	2B-\	2a/]
2E-i\	.	2c\	2.g/
1D	.	1d	.
.	.	.	4f/
.	.	.	2f/
=217.	=217.	=217.	=217.
2.C/	0r	2.e-i\	1g
4BB-/	.	4d\	.
1GG	.	4B-\	1r
.	.	4c\	.
.	.	[2d\	.
=218	=218	=218	=218
0r	0r	2d\]	1g
.	.	2.c\	.
.	.	.	2g/
.	.	4B-\	.
.	.	2B-\	2g/
=219.	=219.	=219.	=219.
0r	0r	1c	1g
.	.	1r	1a
=220	=220	=220	=220
0r	0r	1c	2g/
.	.	.	1e
.	.	2c\	.
.	.	2c\	[2g/
=221.	=221.	=221.	=221.
0r	0r	1c	2g/]
.	.	.	4f/
.	.	.	4e/
.	.	1d	1f
=222	=222	=222	=222
0r	0r	2c\	2e/
.	.	1A	1cc
.	.	[2c\	4b-\
.	.	.	4a/
=223.	=223.	=223.	=223.
0r	0r	2c\]	2g/
.	.	4B-\	1a
.	.	4A/	.
.	.	1B-	.
.	.	.	2g/
=224	=224	=224	=224
0r	0r	2A/	2a/
.	.	1f	1a
.	.	4e\	2g/
.	.	4d\	.
=225.	=225.	=225.	=225.
0r	0r	2c\	2a/
.	.	1d	2f/
.	.	.	2g/
.	.	2c\	2a/
=226	=226	=226	=226
0r	1D	2d\	1d
.	.	1d	.
.	2D/	.	2a/
.	[2F/	2c\	[2a/
=227.	=227.	=227.	=227.
0r	2F/]	2d\	2a/]
.	2G/	2B-\	2b-\
.	2A/	2c\	1a
.	2F/	2d\	.
=228	=228	=228	=228
1GG	1B-	1G	2.g/
.	.	.	4f/
2GG/	1B-	2d\	1d
[2BB-/	.	[2d\	.
=229.	=229.	=229.	=229.
2BB-/]	1G	2d\]	0r
2C/	.	2e-i\	.
2D\	1r	1d	.
2BB-/	.	.	.
=230	=230	=230	=230
1E-i	2c\	2.c\	0r
.	1c	.	.
.	.	4B-\	.
1E-i	.	1G	.
.	2B-\	.	.
=231.	=231.	=231.	=231.
1C	2A/	0r	0r
.	4G/	.	.
.	4F/	.	.
1r	1G	.	.
=232	=232	=232	=232
2F\	1.A	0r	0r
1F	.	.	.
2E\	2G/	.	.
=233.	=233.	=233.	=233.
2D\	2F/	0r	0r
4C/	4E/	.	.
4BB-/	4D/	.	.
1C	1E	.	.
=234	=234	=234	=234
1.D	2.D/	0r	0r
.	4E/	.	.
.	4F/	.	.
.	4G/	.	.
2C/	[2A/	.	.
=235.	=235.	=235.	=235.
2BB-/	2A/]	0r	0r
4AA/	2.G/	.	.
4GG/	.	.	.
1AA	.	.	.
.	4E/	.	.
.	2F#i/	.	.
=236	=236	=236	=236
2.GG/	2G/	0r	0r
.	2D/	.	.
4AA/	.	.	.
4BB-/	2D/	.	.
4C/	.	.	.
[2D\	2D/	.	.
=237.	=237.	=237.	=237.
2D\]	2F/	0r	0r
2.C/	2G/	.	.
.	2A/	.	.
4AA/	.	.	.
2BB-/	2F/	.	.
=238	=238	=238	=238
2C/	1E	0r	0r
2GG/	.	.	.
2GG/	1E	.	.
2GG/	.	.	.
=239.	=239.	=239.	=239.
2BB-/	0D	0r	1d
2C/	.	.	.
2D\	.	.	2d/
2BB-/	.	.	[2f/
=240	=240	=240	=240
1AA	1r	0r	2f/]
.	.	.	2g/
1AA	1F	.	2a/
.	.	.	2f/
=241.	=241.	=241.	=241.
0GG	[0G	1G	1b-
.	.	2G/	1b-
.	.	[2B-\	.
=242	=242	=242	=242
1r	0G]	2B-\]	1g
.	.	2c\	.
1BB-	.	2d\	1r
.	.	2B-\	.
=243.	=243.	=243.	=243.
[0C	0C	1e-i	2cc\
.	.	.	1cc
.	.	1e-i	.
.	.	.	2b-\
=244	=244	=244	=244
0C]	1r	1c	2a/
.	.	.	4g/
.	.	.	4f/
.	1E	1r	1g
=245.	=245.	=245.	=245.
0FF	2.F/	2f\	1.a
.	.	1f	.
.	4G/	.	.
.	[1A	.	.
.	.	2e\	2g/
=246	=246	=246	=246
1r	1A]	2d\	2f/
.	.	4c\	4e/
.	.	4B-\	4d/
1AA	1A	1c	1e
=247.	=247.	=247.	=247.
2.BB-/	2D/	1.d	2.d/
.	2G/	.	.
4C/	.	.	4e/
[1D	2.F/	.	4f/
.	.	.	4g/
.	.	2c\	[2a/
.	4E/	.	.
=248	=248	=248	=248
1D]	1D	2B-\	2a/]
.	.	4A/	2.g/
.	.	4G/	.
1D	2r	1A	.
.	.	.	4e/
.	2A/	.	2f#i/
=249.	=249.	=249.	=249.
2GG/	2B-\	[0Gl	[0gl
2C/	2c\	.	.
2.BB-/	[1d	.	.
4AA/	.	.	.
=250	=250	=250	=250
[0GGl	2d\]	0G_	0g_
.	2c\	.	.
.	2B-\	.	.
.	2A/	.	.
=251.	=251.	=251.	=251.
0GG_	2G/	0G_	0g_
.	2F/	.	.
.	2E-i/	.	.
.	2E-i/	.	.
=252	=252	=252	=252
0GG_	0D	0G_	0g_
=253.	=253.	=253.	=253.
0GG]	0Dl	0G]	0g]
==	==	==	==
*-	*-	*-	*-
!!!RDF**kern: l=long note in original notation
!!!RDF**kern: i=editorial accidental
!!!ENC:	Chris Gage 03-28-2013
!!!END:	2013/07/28/
!!!EED:	Jesse Rodin
!!!EEV:	2013/08/02/
!!!ONB:	Translated from MusicXML and edited on 2013/08/02/ by Craig Sapp
!!muse2ps: T^@{OPR}^u^@{ONM}{. }@{OTL}^C^@{COM}^i2I150v85,85,85,150Q16c120
